/* XPM */
static const char * WordclockIcon_xpm[] = {
/* columns rows colors chars-per-pixel */
"48 48 118 2 ",
"   c #0B0B0E",
".  c #0C0C0F",
"X  c #0B0C11",
"o  c #0F0F12",
"O  c #0D0E14",
"+  c #100F11",
"@  c #0F1013",
"#  c #101013",
"$  c #161311",
"%  c #161411",
"&  c #111114",
"*  c #141417",
"=  c #1B1712",
"-  c #1C1712",
";  c #1D1812",
":  c #121319",
">  c #131418",
",  c #16161A",
"<  c #17171C",
"1  c #1A1A1F",
"2  c #221B12",
"3  c #231C12",
"4  c #261E12",
"5  c #281F13",
"6  c #2A2113",
"7  c #2C2213",
"8  c #2E2413",
"9  c #322613",
"0  c #362913",
"q  c #372A14",
"w  c #3B2C14",
"e  c #3E2E14",
"r  c #1B1B20",
"t  c #1C1C20",
"y  c #1F1F24",
"u  c #202023",
"i  c #222225",
"p  c #262629",
"a  c #313133",
"s  c #3C3C3F",
"d  c #413014",
"f  c #453314",
"g  c #473414",
"h  c #4B3715",
"j  c #4D3915",
"k  c #503A15",
"l  c #523C15",
"z  c #573F16",
"x  c #5C4216",
"c  c #5F4416",
"v  c #604516",
"b  c #664916",
"n  c #6A4C17",
"m  c #6C4D17",
"M  c #745217",
"N  c #765417",
"B  c #785618",
"V  c #7C5818",
"C  c #454547",
"Z  c #4A4A4C",
"A  c #4F4F51",
"S  c #5A5A5C",
"D  c #5D5D5F",
"F  c #626264",
"G  c #6F6F71",
"H  c #7A7A7C",
"J  c #7C7C7E",
"K  c #855E18",
"L  c #896119",
"P  c #8C6319",
"I  c #936819",
"U  c #976A1A",
"Y  c #9A6C1A",
"T  c #9D6E1A",
"R  c #A1711A",
"E  c #A5731A",
"W  c #A5741A",
"Q  c #AF7A1B",
"!  c #B47E1B",
"~  c #BB821C",
"^  c #C0851C",
"/  c #C3881C",
"(  c #C4881C",
")  c #C88D1D",
"_  c #CE8F1D",
"`  c #CD901D",
"'  c #D3931D",
"]  c #D5941D",
"[  c #D9971E",
"{  c #DB9A1E",
"}  c #DD991E",
"|  c #E09E1E",
" . c #E49E1E",
".. c #E7A01E",
"X. c #EFA51F",
"o. c #F2A71F",
"O. c #F2AA1F",
"+. c #F4A91F",
"@. c #F9AC20",
"#. c #FCAE20",
"$. c #FCB220",
"%. c #FFB821",
"&. c #89898B",
"*. c #939394",
"=. c #A7A7A8",
"-. c #A8A8A9",
";. c #B9B9BA",
":. c #BCBCBD",
">. c #CBCBCC",
",. c gray80",
"<. c #D0D0D1",
"1. c #D4D4D5",
"2. c gray85",
"3. c #E1E1E2",
"4. c #E6E6E6",
"5. c #F1F1F1",
"6. c #F8F8F8",
"7. c white",
/* pixels */
"7.7.7.7.7.2.&.C i & o o o o o o o o o o o o o o o o o o o o o o o o o o o o o t s H ,.6.7.7.7.7.",
"7.7.7.5.*.a o . o o o o o o o o o o o o o o o o o o o o o o o o o o o o o o o o . o p J 4.7.7.7.",
"7.7.4.F # . o o o o o o o o o o o o o o o o o o o o o o o o o o o o o o o o o o o o . . Z 1.7.7.",
"7.5.F   o o o o o o o o o o o o o o o o o o o o o o o o o o o o o o o o o o o o o o o o   C 3.7.",
"7.*.# o o o + o o + o o o o o o o o o o # o o o o o o o o o o o o o o o o o o o o o o o o   G 6.",
"2.a . o # B E 6 7 W N # , 1 & ; U L $ h Q k $ K Y 2 & 1 & o , 1 & # 1 , o & 1 & o < , o o o t ;.",
"&.o o o ; ` $.l z $.) = 1 i : e X.| 6 P %.I 4 { O.d : i 1 o 1 y & & y t o 1 i , & t t & o o . D ",
"C . o o o l M ; ; M k o & , o % n c # 9 V 0 + x m = o , & o & , o o , & o & , # o , , o o o o u ",
"i o o o o X X o o X o o o o o o X X o o X o o X X o o o o o o o o o o o o o o o o o o o o o o o ",
"& o o o o , 1 & & 1 , o , 1 & o 1 1 o & 1 & o , 1 o & 1 , o , 1 & # 1 , o , 1 & o 1 1 o o o o o ",
"o o o o o t y & & y r o 1 i , & t t # , i , # t t & , y 1 o 1 y & & y t o 1 i , & t t # o o o o ",
"o o o o o & , o o , & o & , # o * & o # , & o & * o o , & o & , o o , & o & , # o & & o o o o o ",
"o o o o o o o o o o o o o o o o o o o o o o o o o o o o o o o o o o o o o o o o o o o o o o o o ",
"o o o o o , 1 & & 1 , o , 1 & o 1 1 o & r * o 1 1 # & 1 , o , 1 & & 1 , o , r & o 1 1 o o o o o ",
"o o o o o r y & & y 1 o 1 y , & t t # , y , # t t & , y 1 o 1 y & & t t o 1 y , & t t & o o o o ",
"o o o o o & & o o & & o & * o o & & o # , # o & & o o * & o & & o o & & o & * o o & & o o o o o ",
"o o o o o o o o o o o o o o o o o o o o o o o o o o o o o o o o o o o o o o o o o o o o o o o o ",
"o o o o o 1 r & & r < o , t & # 1 1 o , t , o 1 1 # & t , o , r & & 1 1 o , t & o 1 1 o o o o o ",
"o o o o o 1 t & & t 1 o 1 y , & t t # , y , o t t & , y 1 o 1 y & & t r o 1 y , & t t & o o o o ",
"o o o o o & & o o & & o # & o o & & o o & # o & & o o & # o & & o o & & o @ & o o & & o o o o o ",
"o o o o o = 2 o o 3 = o $ 4 + o ; - o o o o o = 2 o + 4 $ o = 3 o o 2 = o $ 4 # o o o o o o o o ",
"o o o o $ R ' w e ' T $ K { l 6 ( ! ; > t , ; Q ( 7 j [ L $ U ] d 0 ` E % V } c o 1 1 # o o o o ",
"o o o o = ^ o.h j O.~ = R @.b 9  .' 4 , y , 3 _ ..q v @.W = ! +.l d X./ ; U #.M O t t # o o o o ",
"o o o o o 9 f # $ f 8 o 4 h = + e 0 o o & o o 0 e # % g 5 o 7 f $ # d 9 o 4 h = o & & o o o o o ",
"o o o o o o o o o o o o o o o o o o o o # o o o o o o o o o o o o o o o o o o o o o o o o o o o ",
"o o o o o 1 t & & t 1 o , t & # r 1 o , t , o 1 t & & t , o 1 t & & t 1 o , t , # r 1 o o o o o ",
"o o o o o 1 t & & t 1 o 1 t , & t r o , t , o r t & & t 1 o 1 t & & t 1 o , t , # t r o o o o o ",
"o o o o o # & o o & # o o & o o & # o o & o o # & o o & o o # & o o & # o o & o o & o o o o o o ",
"o o o o o o & o o & o o o & o o # # o o & o o # # o o & o o o & o o & o o o & o o # # o o o o o ",
"o o o o o 1 t & & t 1 o < t * & t 1 o , t , o 1 t & & t 1 o 1 t & & t 1 o , t , # t t # o o o o ",
"o o o o o 1 t & & t 1 o < t * & t 1 o , t , o 1 t & & t 1 o 1 t & & t 1 o , t , # t t # o o o o ",
"o o o o o o & o o & o o o & o o # # o o & o o # # o o & o o o & o o # o o o & o o # # o o o o o ",
"o o o o o # & o o & # o o & o o & & o o & o o # & o o & o o # & o o & # o o & o o & & o o o o o ",
"o o o o o 1 t & & t 1 o 1 t , & t r o , t , o r t & * t 1 o 1 t & & t 1 o , t , # t t # o o o o ",
"o o o o o 1 t & & t 1 o , t & # r 1 o , t , o 1 t & & t , o 1 t & & t 1 o , t , # r 1 # o o o o ",
"o o o o o o # o o # o o o # o o o o o o # o o o o o o # o o o # o o # o o o # o o o o o o o o o ",
"o o o o o & & o o & & o # & o o & & o o & o o & & o o & # o # & o o & & o # & o o & & o o o o o ",
"o o o o o 1 t & & t 1 o 1 y , & t t # , y , o t t & * y 1 o 1 t & & t 1 o 1 y , # t t & o o o o ",
"o o o o o 1 t & & t 1 o , t & # 1 1 o , t , o 1 r # & t , o 1 t & & t 1 o , t & # 1 1 # o o o o ",
"t o o o o o o o o o o o o o o o o o o o o o o o o o o o o o o o o o o o o o o o o o o o o o o o ",
"s . o o o & & o o & & o # & o o & & o o & # o & & o o & & o & & o o & & o # & o o & & o o o o 1 ",
"H o o o o 1 t & & y 1 o 1 y , & t t # , y , o t t & , y 1 o 1 y & & t r o 1 y , & t t & o o . A ",
">.p . o o 1 r & & r , o , t & # 1 1 o & t , o 1 1 # & t , o , r & & 1 1 o , t & o 1 1 o o o , =.",
"7.J . o o o o o o o o o o o o o o o o o o o o o o o o o o o o o o o o o o o o o o o o o o   S 5.",
"7.4.Z   o o o o o o o o o o o o o o o o o o o o o o o o o o o o o o o o o o o o o o o o   a <.7.",
"7.7.1.C   o o o o o o o o o o o o o o o o o o o o o o o o o o o o o o o o o o o o o o   a :.7.7.",
"7.7.7.3.G t   o o o o o o o o o o o o o o o o o o o o o o o o o o o o o o o o o o . , S <.7.7.7.",
"7.7.7.7.6.;.D u o o o o o o o o o o o o o o o o o o o o o o o o o o o o o o o o 1 A -.5.7.7.7.7."
};
